!!!COM:	Busnoys, Antoine
!!!CDT:	~1430///-1492/11/06
!!!OTL:	Ma tres souveraine princesse
!!!AGN:	Song; Chanson
!!!SCT:	Bus3041
!!!SCA:	Bus3041
!!!voices:	3
**kern	**kern	**kern
*staff3	*staff2	*staff1
*Ivox	*Ivox	*Ivox
*I"Contra	*I"Tenor	*I"Superius
*I'C	*I'T	*I'S
*clefF4	*clefGv2	*clefG2
*k[b-]	*k[b-]	*k[b-]
*M2/1	*M2/1	*M2/1
*met(C|)	*met(C|)	*met(C|)
=1-	=1-	=1-
!	!	!LO:TX:Z=12:t=Rondeau
0GG	0r	0g
=2	=2	=2
1AA	1r	1f
1GG	[1G	1g
=3	=3	=3
2.G	1G]	1b-
4F	.	.
1D	1F	1a
=4	=4	=4
1GG	1G	1g
2r	1B-	1dd
[2G	.	.
=5	=5	=5
2G]	1A	2cc
2F	.	2a
2G	1G	1b-
2E	.	.
=6	=6	=6
1F	1d	2a
.	.	2f
1E	1e	1g
=7	=7	=7
1.D	1.f	1a
.	.	2d
2BB-	2d	[2f
=8	=8	=8
1BB-	1d	2f]
.	.	2g
2r	2c	2a
2BB-	[2d	2b-
=9	=9	=9
2D	2d]	2a
2E	2c	1cc
2F	2A	.
2G	2B-	2b-
=10	=10	=10
1E	1c	1g
2D	2.d	2f
2d	.	2b-
.	4B-	.
=11	=11	=11
2c	2c	4a
.	.	4g
2d	2B-	1g
1D	1A	.
.	.	2f#i
=12	=12	=12
1GG	[0G	0g
2.C	.	.
4BB-	.	.
=13	=13	=13
0GG	0G]	1r
.	.	1d
=14	=14	=14
0C	1r	1e
.	1G	1e
=15	=15	=15
1BB-	1.B-	1d
1GG	.	[1g
.	2c	.
=16	=16	=16
1r	1d	2g]
.	.	2f
1C	1e	2g
.	.	2a
=17	=17	=17
1G	1d	1b-
2.F	1f	1a
4E	.	.
=18	=18	=18
1C	2e	1cc
.	2c	.
1GG	1d	2b-
.	.	[2g
=19	=19	=19
2r	2c	2g]
2G	2B-	1dd
2A	1A	.
2F	.	2cc
=20	=20	=20
2G	2G	2b-
2.D	1A	2a
.	.	1cc
4C	.	.
2AA	2F	.
=21	=21	=21
2GG	2G	2b-
2.D	2F	1a
.	1D	.
4E	.	.
2F	.	2f
=22	=22	=22
1E	2r	1g
.	1G	.
1D	.	1a
.	2F	.
=23	=23	=23
2r	2G	2g
1F	1A	1cc
2G	2G	[2b-
=24	=24	=24
1F	1A	4b-]
.	.	4a
.	.	1a
1G	1B-	.
.	.	2g
=25	=25	=25
0D	1A	1.a
.	1d	.
.	.	4g
.	.	4f
=26	=26	=26
[0AAN	0cN	[0eN
=27	=27	=27
0AA]	1r	0e]
.	1c	.
=28	=28	=28
0D	1d	1r
.	[1f	1d
=29	=29	=29
1r	2f]	1.f
.	2e	.
1D	1d	.
.	.	2g
=30	=30	=30
1F	1c	1a
1F	1c	1a
=31	=31	=31
1.BB-	1.d	1.b-
2C	4c	4a
.	4B-	4g
=32	=32	=32
1D	1A	1f
1G	1B-	1g
=33	=33	=33
2F	1A	1.a
2.D	.	.
.	2d	.
4E	.	.
4F	[2d	4g
4G	.	4f
=34	=34	=34
1A	2d]	1e
.	2c#i	.
[1D	1d	2d
.	.	[2f
=35	=35	=35
2D]	2D	2f]
2C	2E	2e
1BB-	2F	1d
.	2G	.
=36	=36	=36
1AA	1A	1c
2D	2r	2A
2C	2A	2c
=37	=37	=37
2BB-	2B-	2d
2C	2G	1e
2AA	1A	.
[2D	.	[2f
=38	=38	=38
2D]	2D	4f]
.	.	4e
2D	2F	1d
1AA	1E	.
.	.	2c#i
=39	=39	=39
1A	0D	1d
2.F	.	1r
4D	.	.
=40	=40	=40
1D	1r	1a
1GG	1G	1b-
=41	=41	=41
1r	1A	1cc
[1GG	1B-	[1dd
=42	=42	=42
2GG]	1G	2dd]
2AA	.	2cc
2BB-	[1d	1b-
2C	.	.
=43	=43	=43
1D	2d]	1a
.	2c	.
1G	1B-	1g
=44	=44	=44
2F	1A	2a
1A	.	1cc
.	2F	.
2G	2G	2b-
=45	=45	=45
2.F	2A	1a
.	1D	.
4E	.	.
2D	.	2f
4C	[2G	2g
4BB-	.	.
=46	=46	=46
1AA	2G]	1a
.	2F#i	.
1GG	2G	2.d
.	[2B-	.
.	.	4e
=47	=47	=47
2r	4B-]	2f
.	4A	.
2GG	2G	2g
2D	2F	2a
2BB-	2G	2b-
=48	=48	=48
2AA	2A	2.cc
2D	2F	.
.	.	4a
2GG	2G	2b-
2AA	4F	4a
.	4E	4g
=49	=49	=49
2.BB-	2D	2f
.	1d	4g
4C	.	4a
4D	.	2b-
4E	.	.
2F	2c	[2a
=50	=50	=50
2G	2B-	4a]
.	.	4g
2E	2G	1g
1D	1A	.
.	.	2f#i
=51	=51	=51
0GGl	0Gl	0gl
==	==	==
*-	*-	*-
!!!RDF**kern: l=long note in original notation
!!!RDF**kern: i=editorial accidental
!!!RDF**kern: N=signum congruentiae
!!!ENC:	Chris Gage 04-13-2015
!!!END:	2015/05/06/
!!!EED:	Jesse Rodin
!!!EEV:	2015/09/21/
!!!ONB:	Translated from MusicXML and edited on 2015/09/21/ by Craig Sapp
!!muse2ps: C^@{COM}^i2I150v95,95,150Q16
